X:25
T:Jimmy Allen
B:Join The Band
M:C|
L:1/4
K:G
P:A
G/A/|"G"BG GA|"G"B2 GA/B/|"D"cA AB|"D"c2 BA|
"G"Gg "C"ge|"G"d2 BB/c/|"G"dd "D"cA|"G"G3:|
P:B
B/A/|"G"Gg g>f|"G"ed cB|"D"Aa a>f|"D"fd ef|
"G"g>a "C"ge|"G"d2 BB/c/|"G"dd "D"cA|"G"G3:|

